assets/icons/informations/account_balance.svg

<svg viewBox="0 0 24 24" xmlns="http://www.w3.org/2000/svg">
<path d="M6.05 17.975C5.83333 17.975 5.65417 17.9042 5.5125 17.7625C5.37083 17.6208 5.3 17.4417 5.3 17.225V10.225C5.3 10.025 5.375 9.85416 5.525 9.7125C5.675 9.57083 5.85 9.5 6.05 9.5C6.26667 9.5 6.44583 9.57083 6.5875 9.7125C6.72917 9.85416 6.8 10.0333 6.8 10.25V17.25C6.8 17.45 6.725 17.6208 6.575 17.7625C6.425 17.9042 6.25 17.975 6.05 17.975ZM12.1 17.975C11.8833 17.975 11.7042 17.9042 11.5625 17.7625C11.4208 17.6208 11.35 17.4417 11.35 17.225V10.225C11.35 10.025 11.425 9.85416 11.575 9.7125C11.725 9.57083 11.9 9.5 12.1 9.5C12.3167 9.5 12.4958 9.57083 12.6375 9.7125C12.7792 9.85416 12.85 10.0333 12.85 10.25V17.25C12.85 17.45 12.775 17.6208 12.625 17.7625C12.475 17.9042 12.3 17.975 12.1 17.975ZM2.725 20.975C2.525 20.975 2.35417 20.9 2.2125 20.75C2.07083 20.6 2 20.425 2 20.225C2 20.0083 2.07083 19.8292 2.2125 19.6875C2.35417 19.5458 2.53333 19.475 2.75 19.475H21.275C21.475 19.475 21.6458 19.55 21.7875 19.7C21.9292 19.85 22 20.025 22 20.225C22 20.4417 21.9292 20.6208 21.7875 20.7625C21.6458 20.9042 21.4667 20.975 21.25 20.975H2.725ZM17.95 17.975C17.7333 17.975 17.5542 17.9042 17.4125 17.7625C17.2708 17.6208 17.2 17.4417 17.2 17.225V10.225C17.2 10.025 17.275 9.85416 17.425 9.7125C17.575 9.57083 17.75 9.5 17.95 9.5C18.1667 9.5 18.3458 9.57083 18.4875 9.7125C18.6292 9.85416 18.7 10.0333 18.7 10.25V17.25C18.7 17.45 18.625 17.6208 18.475 17.7625C18.325 17.9042 18.15 17.975 17.95 17.975ZM12.75 1.4L21.45 6.35C21.6167 6.45 21.75 6.575 21.85 6.725C21.95 6.875 22 7.04166 22 7.225C22 7.45833 21.9083 7.64583 21.725 7.7875C21.5417 7.92916 21.3333 8 21.1 8H2.9C2.66667 8 2.45833 7.92916 2.275 7.7875C2.09167 7.64583 2 7.45833 2 7.225C2 7.04166 2.05417 6.87083 2.1625 6.7125C2.27083 6.55416 2.40833 6.43333 2.575 6.35L11.25 1.4C11.4833 1.26666 11.7333 1.2 12 1.2C12.2667 1.2 12.5167 1.26666 12.75 1.4Z" fill="inherit"/>
</svg>

<svg viewBox="0 0 24 24" xmlns="http://www.w3.org/2000/svg"><path d="M6 18a.7.7 0 0 1-.7-.8v-7c0-.2 0-.3.2-.5l.5-.2a.7.7 0 0 1 .8.8v7c0 .1 0 .3-.2.5L6 18Zm6.1 0a.7.7 0 0 1-.8-.8v-7c0-.2.1-.3.3-.5l.5-.2a.7.7 0 0 1 .8.8v7l-.3.5-.5.2Zm-9.4 3c-.2 0-.3-.1-.5-.3a.7.7 0 0 1-.2-.5.7.7 0 0 1 .8-.7h18.5c.2 0 .3 0 .5.2l.2.5a.7.7 0 0 1-.8.8H2.8ZM18 18a.7.7 0 0 1-.8-.8v-7c0-.2 0-.3.2-.5l.6-.2a.7.7 0 0 1 .7.8v7c0 .1 0 .3-.2.5l-.6.2ZM12.6 1.4l8.8 5 .4.3.1.5c0 .3 0 .4-.3.6a1 1 0 0 1-.6.2H2.9a1 1 0 0 1-.6-.2.7.7 0 0 1-.3-.6c0-.2 0-.3.2-.5l.4-.4 8.7-4.9a1.5 1.5 0 0 1 1.4 0Z" fill="inherit"/></svg>
